X: 21054
T: L'ARC-EN-CIEL
T: "RAINBOW QUADRILLE."
%R: march, reel
B: W. Hamilton "Universal Tune-Book" Vol. 2 Glasgow 1846 p.105 #4
S: http://s3-eu-west-1.amazonaws.com/itma.dl.printmaterial/book_pdfs/hamiltonvol2web.pdf
Z: 2016 John Chambers <jc:trillian.mit.edu>
M: 2/4
L: 1/16
K: F
% - - - - - - - - - - - - - - - - - - - - - - - - -
(cB) !segno!|:\
A2Ac B2Bd | c2fe gfed |\
c2dc B2cB | A2BA G2cB |\
A2Ac B2Bd | c2fe gfed |\
cfed cBAG | F2"^Fin."F2F2 H:|
ef |\
g2gf e2ed | c2c2 c2de |\
f2c2f2c2 | gfed cBAG |\
F2gf e2ed | c2c2c2a2 |\
g2f2e2d2 | c2cd "^D.C."c4 !segno!|]
% - - - - - - - - - - - - - - - - - - - - - - - - -

%%sep 1 1 500
%%sep 1 1 500

